build/Karasa-Jaga/scalable/status/network-vpn-acquiring-symbolic.svg

<svg height="16" width="16" xmlns="http://www.w3.org/2000/svg"><g fill="#bebebe"><path d="m4 5v.59375h8v-.59375zm0 5.40625v.59375h8v-.59375z" opacity=".5"/><path d="m8 1c-1.645 0-3 1.355-3 3v1.59375h6v-1.59375c0-1.645-1.355-3-3-3zm0 2c.56413 0 1 .43588 1 1v1h-2v-1c0-.56412.43587-1 1-1z" opacity=".5"/><path d="m6 13v1h-6v1h6v1h4v-1h6v-1h-6v-1zm1 1h2v1h-2z" opacity=".5"/><path d="m7.5 10.690493v2.309507h1v-2.309507z" opacity=".5" stroke-width=".792656"/><g stroke-width="1.5"><path d="m5.01 8a1.5 1.5 0 1 1 -3 0 1.5 1.5 0 1 1 3 0z"/><path d="m9.01 8a1.5 1.5 0 1 1 -3 0 1.5 1.5 0 1 1 3 0z"/><path d="m13.01 8a1.5 1.5 0 1 1 -3 0 1.5 1.5 0 1 1 3 0z"/></g></g></svg>

<?xml version="1.0" encoding="UTF-8" standalone="no"?>
<!-- Created with Inkscape (http://www.inkscape.org/) -->

<svg
   xmlns:dc="http://purl.org/dc/elements/1.1/"
   xmlns:cc="http://creativecommons.org/ns#"
   xmlns:rdf="http://www.w3.org/1999/02/22-rdf-syntax-ns#"
   xmlns:svg="http://www.w3.org/2000/svg"
   xmlns="http://www.w3.org/2000/svg"
   xmlns:sodipodi="http://sodipodi.sourceforge.net/DTD/sodipodi-0.dtd"
   xmlns:inkscape="http://www.inkscape.org/namespaces/inkscape"
   id="svg7384"
   height="16"
   width="16"
   version="1.1"
   sodipodi:docname="network-vpn-acquiring-symbolic.svg"
   inkscape:version="0.92.2 (unknown)">
  <defs
     id="defs12" />
  <sodipodi:namedview
     pagecolor="#ffffff"
     bordercolor="#666666"
     borderopacity="1"
     objecttolerance="10"
     gridtolerance="10"
     guidetolerance="10"
     inkscape:pageopacity="0"
     inkscape:pageshadow="2"
     inkscape:window-width="1366"
     inkscape:window-height="706"
     id="namedview10"
     showgrid="false"
     inkscape:zoom="14.75"
     inkscape:cx="7.886827"
     inkscape:cy="9.6682341"
     inkscape:window-x="0"
     inkscape:window-y="0"
     inkscape:window-maximized="1"
     inkscape:current-layer="svg7384" />
  <metadata
     id="metadata90">
    <rdf:RDF>
      <cc:Work
         rdf:about="">
        <dc:format>image/svg+xml</dc:format>
        <dc:type
           rdf:resource="http://purl.org/dc/dcmitype/StillImage" />
        <dc:title>Gnome Symbolic Icon Theme</dc:title>
      </cc:Work>
    </rdf:RDF>
  </metadata>
  <title
     id="title9167">Gnome Symbolic Icon Theme</title>
  <path
     style="color:#bebebe;fill:#bebebe;opacity:0.5"
     d="M 4 5 L 4 5.59375 L 12 5.59375 L 12 5 L 4 5 z M 4 10.40625 L 4 11 L 12 11 L 12 10.40625 L 4 10.40625 z "
     id="rect13312" />
  <path
     style="color:#bebebe;text-indent:0;text-transform:none;fill:#bebebe;opacity:0.5"
     d="M 8 1 C 6.355 1 5 2.355 5 4 L 5 5.59375 L 11 5.59375 L 11 4 C 11 2.355 9.645 1 8 1 z M 8 3 C 8.56413 3 9 3.43588 9 4 L 9 5 L 7 5 L 7 4 C 7 3.43588 7.43587 3 8 3 z "
     id="path13314" />
  <g
     id="g859">
    <path
       sodipodi:nodetypes="cccccccccccccccccc"
       id="rect4197"
       style="color:#000000;isolation:auto;mix-blend-mode:normal;solid-color:#000000;fill:#bebebe;color-rendering:auto;image-rendering:auto;shape-rendering:auto;opacity:0.5"
       d="m 6,13 v 1 H 0 v 1 h 6 v 1 h 4 v -1 h 6 v -1 h -6 v -1 z m 1,1 h 2 v 1 H 7 Z"
       inkscape:connector-curvature="0" />
    <path
       inkscape:connector-curvature="0"
       id="path852"
       d="M 7.5,10.690493 V 13 h 1 v -2.309507 z"
       style="color:#000000;isolation:auto;mix-blend-mode:normal;solid-color:#000000;fill:#bebebe;stroke-width:0.79265612;color-rendering:auto;image-rendering:auto;shape-rendering:auto;opacity:0.5" />
  </g>
  <path
     inkscape:connector-curvature="0"
     id="path4955-1-1"
     style="fill:#bebebe;stroke-width:1.5"
     d="m 5.01,8 a 1.5,1.5 0 1 1 -3,0 1.5,1.5 0 1 1 3,0 z" />
  <path
     inkscape:connector-curvature="0"
     id="path4957-2-6"
     style="fill:#bebebe;stroke-width:1.5"
     d="m 9.01,8 a 1.5,1.5 0 1 1 -3,0 1.5,1.5 0 1 1 3,0 z" />
  <path
     inkscape:connector-curvature="0"
     id="path4959-4-4"
     style="fill:#bebebe;stroke-width:1.5"
     d="m 13.01,8 a 1.5,1.5 0 1 1 -3,0 1.5,1.5 0 1 1 3,0 z" />
</svg>
